X:670
T:Vals # 670
M:3/4
L:1/8
Q:180
K:D
A3A(A2|A2)B2c2|d3d(d2|d2)f2a2|g2f2e2|d2c2B2|A3d fe|d2F2G2|
A3A(A2|A2)B2c2|d3d(d2|d2)f2a2|g2f2e2|d2c2B2|A3d fe|d4z2:|
|:(g6|g2){ag}f2e2|(d6|d2)(FA)d2|c6|c2{dc}B2c2|d6|d2f2a2|(g6|g2){ag}f2e2|
(d6|d2)(FA)d2|c4A2|{fg}f4e2|d4dd|d4z2:|

